X: 1
%Breathnach's code: 555552 (when treated as K:Dmix rather than K:Ador)
T: Elizabeth Kelly's Delight
D: Deiseal; Mugar "Kabily-touseg"
S: Michel Sikiotakis <msikio@yahoo.fr> 2009-4-29
M: 9/8
R: slip Jig
Z: id:hn-slipjig-1 Modified by Michel Sikiotakis
K: Ador
|: A3 ABA AGE | A3 G2E DEG | A3 ABA AGE | G3 G2E DEG :|
|: c3 BAG A2E | c3 BGE DEG | c3 BAG A2E | G3 G2E DEG :|
